third_party/noto/noto_2/emoji_u1f610.svg

<svg enable-background="new 0 0 128 128" version="1.1" viewBox="0 0 128 128" xmlns="http://www.w3.org/2000/svg"><radialGradient id="a" cx="63.6" cy="2584.9" r="56.96" gradientTransform="translate(0 -2522)" gradientUnits="userSpaceOnUse"><stop stop-color="#FDE030" offset=".5"/><stop stop-color="#F7C02B" offset=".92"/><stop stop-color="#F4A223" offset="1"/></radialGradient><path d="m63.6 118.8c-27.9 0-58-17.5-58-55.9s30.1-55.9 58-55.9c15.5 0 29.8 5.1 40.4 14.4 11.5 10.2 17.6 24.6 17.6 41.5s-6.1 31.2-17.6 41.4c-10.6 9.3-25 14.5-40.4 14.5z" fill="url(#a)"/><path d="m111.49 29.67c5.33 8.6 8.11 18.84 8.11 30.23 0 16.9-6.1 31.2-17.6 41.4-10.6 9.3-25 14.5-40.4 14.5-18.06 0-37-7.35-48.18-22.94 10.76 17.66 31 25.94 50.18 25.94 15.4 0 29.8-5.2 40.4-14.5 11.5-10.2 17.6-24.5 17.6-41.4 0-12.74-3.47-24.06-10.11-33.23z" fill="#EB8F00"/><path d="m89 88h-50c-2.21 0-4-1.79-4-4s1.79-4 4-4h50c2.21 0 4 1.79 4 4s-1.79 4-4 4z" fill="#422B0D"/><path d="m44.67 45.94c-4.19 0-8 3.54-8 9.42s3.81 9.41 8 9.41 8-3.54 8-9.41-3.81-9.42-8-9.42z" fill="#422B0D"/><path d="m44.28 49.87c-1.42-0.68-3.13-0.08-3.82 1.34-0.53 1.11-0.29 2.44 0.6 3.3 1.42 0.68 3.13 0.08 3.82-1.34 0.53-1.11 0.29-2.44-0.6-3.3z" fill="#896024"/><path d="m83 45.94c-4.19 0-8 3.54-8 9.42s3.81 9.41 8 9.41 8-3.54 8-9.41-3.79-9.42-8-9.42z" fill="#422B0D"/><path d="m82.63 49.87c-1.42-0.68-3.13-0.08-3.82 1.34-0.53 1.11-0.29 2.44 0.6 3.3 1.42 0.68 3.13 0.08 3.82-1.34 0.53-1.11 0.29-2.44-0.6-3.3z" fill="#896024"/></svg>

<?xml version="1.0" encoding="utf-8"?>
<!-- Generator: Adobe Illustrator 24.1.2, SVG Export Plug-In . SVG Version: 6.00 Build 0)  -->
<svg version="1.1" id="Layer_1" xmlns="http://www.w3.org/2000/svg" xmlns:xlink="http://www.w3.org/1999/xlink" x="0px" y="0px"
	 viewBox="0 0 128 128" style="enable-background:new 0 0 128 128;" xml:space="preserve">
<g id="gold">
	
		<radialGradient id="face_1_" cx="63.6" cy="2584.8999" r="56.9597" gradientTransform="matrix(1 0 0 1 0 -2522)" gradientUnits="userSpaceOnUse">
		<stop  offset="0.5" style="stop-color:#FDE030"/>
		<stop  offset="0.92" style="stop-color:#F7C02B"/>
		<stop  offset="1" style="stop-color:#F4A223"/>
	</radialGradient>
	<path id="face" style="fill:url(#face_1_);" d="M63.6,118.8c-27.9,0-58-17.5-58-55.9S35.7,7,63.6,7c15.5,0,29.8,5.1,40.4,14.4
		c11.5,10.2,17.6,24.6,17.6,41.5s-6.1,31.2-17.6,41.4C93.4,113.6,79,118.8,63.6,118.8z"/>
	<path style="fill:#EB8F00;" d="M111.49,29.67c5.33,8.6,8.11,18.84,8.11,30.23c0,16.9-6.1,31.2-17.6,41.4
		c-10.6,9.3-25,14.5-40.4,14.5c-18.06,0-37-7.35-48.18-22.94c10.76,17.66,31,25.94,50.18,25.94c15.4,0,29.8-5.2,40.4-14.5
		c11.5-10.2,17.6-24.5,17.6-41.4C121.6,50.16,118.13,38.84,111.49,29.67z"/>
</g>
<g id="facial_expressions">
	<g id="neutral-face">
		<path id="mouth" style="fill:#422B0D;" d="M89,88H39c-2.21,0-4-1.79-4-4s1.79-4,4-4h50c2.21,0,4,1.79,4,4S91.21,88,89,88z"/>
	</g>
	<path style="fill:#422B0D;" d="M44.67,45.94L44.67,45.94c-4.19,0-8,3.54-8,9.42s3.81,9.41,8,9.41l0,0c4.19,0,8-3.54,8-9.41
		S48.86,45.94,44.67,45.94z"/>
	<g id="peepers">
		<path style="fill:#896024;" d="M44.28,49.87L44.28,49.87c-1.42-0.68-3.13-0.08-3.82,1.34c-0.53,1.11-0.29,2.44,0.6,3.3l0,0
			c1.42,0.68,3.13,0.08,3.82-1.34C45.41,52.06,45.17,50.73,44.28,49.87z"/>
	</g>
	<path style="fill:#422B0D;" d="M83,45.94L83,45.94c-4.19,0-8,3.54-8,9.42s3.81,9.41,8,9.41l0,0c4.19,0,8-3.54,8-9.41
		S87.21,45.94,83,45.94z"/>
	<g id="peepers-2">
		<path style="fill:#896024;" d="M82.63,49.87L82.63,49.87c-1.42-0.68-3.13-0.08-3.82,1.34c-0.53,1.11-0.29,2.44,0.6,3.3l0,0
			c1.42,0.68,3.13,0.08,3.82-1.34C83.76,52.06,83.52,50.73,82.63,49.87z"/>
	</g>
</g>
</svg>
